; generated by PrusaSlicer 2.1.0+ on 2019-10-24 at 04:04:13 UTC

; 

; external perimeters extrusion width = 0.45mm
; perimeters extrusion width = 0.45mm
; infill extrusion width = 0.45mm
; solid infill extrusion width = 0.45mm
; top infill extrusion width = 0.40mm
; first layer extrusion width = 0.42mm

M73 P0 R221
M73 Q0 S236
M201 X1000 Y1000 Z1000 E5000 ; sets maximum accelerations, mm/sec^2
M203 X200 Y200 Z12 E120 ; sets maximum feedrates, mm/sec
M204 P1250 R1250 T1250 ; sets acceleration (P, T) and retract acceleration (R), mm/sec^2
M205 X8.00 Y8.00 Z0.40 E1.50 ; sets the jerk limits, mm/sec
M205 S0 T0 ; sets the minimum extruding and travel feed rate, mm/sec
M107
M862.3 P "MK3" ; printer model check
M862.1 P0.4 ; nozzle diameter check
M115 U3.8.0 ; tell printer latest fw version
G90 ; use absolute coordinates
M83 ; extruder relative mode
M104 S215 ; set extruder temp
M140 S60 ; set bed temp
M190 S60 ; wait for bed temp
M109 S215 ; wait for extruder temp
G28 W ; home all without mesh bed level
G80 ; mesh bed leveling
G1 Y-3.0 F1000.0 ; go outside print area
G92 E0.0
G1 X60.0 E9.0 F1000.0 ; intro line
M73 Q0 S236
M73 P0 R221
G1 X100.0 E12.5 F1000.0 ; intro line
G92 E0.0
M221 S95
G21 ; set units to millimeters
G90 ; use absolute coordinates
M83 ; use relative distances for extrusion
M900 K30 ; Filament gcode
;BEFORE_LAYER_CHANGE
G92 E0.0
;0.2


G1 E-0.80000 F2100.00000
G1 Z0.600 F10800.000
;AFTER_LAYER_CHANGE
;0.2
G1 X16.446 Y12.785
G1 Z0.200
G1 E0.80000 F2100.00000
M204 S1000
G1 F1200
G1 X17.194 Y12.651 E0.02383
G1 X232.804 Y12.651 E6.76029
G1 X233.637 Y12.818 E0.02664
G1 X234.342 Y13.287 E0.02653
G1 X234.817 Y13.991 E0.02664
G1 X234.988 Y14.823 E0.02664
G1 X234.989 Y195.167 E5.65456
G1 X234.936 Y195.639 E0.01487
G1 X234.784 Y196.084 E0.01475
G1 X234.538 Y196.490 E0.01487
G1 X234.214 Y196.830 E0.01475
G1 X233.554 Y197.215 E0.02394
G1 X232.806 Y197.349 E0.02383
G1 X17.196 Y197.349 E6.76029
G1 X16.725 Y197.296 E0.01487
G1 X16.279 Y197.145 E0.01475
G1 X15.873 Y196.901 E0.01487
G1 X15.530 Y196.574 E0.01487
G1 X15.145 Y195.914 E0.02394
G1 X15.011 Y195.166 E0.02383
G1 X15.011 Y14.836 E5.65411
G1 X15.064 Y14.365 E0.01487
G1 X15.215 Y13.919 E0.01475
G1 X15.459 Y13.513 E0.01487
G1 X15.786 Y13.169 E0.01487
G1 X16.394 Y12.816 E0.02206
G1 F8640
G1 X17.194 Y12.651 E-0.18856
G1 X19.669 Y12.651 E-0.57144
G1 E-0.04000 F2100.00000
G1 Z0.800 F10800.000
G1 X118.538 Y145.877
G1 Z0.200
G1 E0.80000 F2100.00000
G1 F1200
G1 X121.234 Y144.437 E0.09584
G1 X124.159 Y143.549 E0.09583
G1 X127.200 Y143.250 E0.09581
G1 X130.241 Y143.549 E0.09581
G1 X133.166 Y144.437 E0.09583
G1 X135.862 Y145.877 E0.09584
G1 X138.224 Y147.816 E0.09582
G1 X140.163 Y150.178 E0.09582
G1 X141.603 Y152.874 E0.09584
G1 X142.491 Y155.799 E0.09583
G1 X142.790 Y158.840 E0.09581
G1 X142.491 Y161.881 E0.09581
G1 X141.603 Y164.806 E0.09583
G1 X140.163 Y167.502 E0.09584
G1 X138.224 Y169.864 E0.09582
G1 X135.862 Y171.803 E0.09582
G1 X133.166 Y173.243 E0.09584
G1 X130.241 Y174.131 E0.09583
G1 X127.200 Y174.430 E0.09581
G1 X124.159 Y174.131 E0.09581
G1 X121.234 Y173.243 E0.09583
G1 X118.538 Y171.803 E0.09584
G1 X116.176 Y169.864 E0.09581
G1 X114.237 Y167.502 E0.09582
G1 X112.797 Y164.806 E0.09584
G1 X111.910 Y161.881 E0.09583
G1 X111.610 Y158.840 E0.09581
G1 X111.910 Y155.799 E0.09581
G1 X112.797 Y152.874 E0.09583
G1 X114.237 Y150.178 E0.09584
G1 X116.176 Y147.816 E0.09582
G1 X118.492 Y145.916 E0.09392
G1 X118.731 Y146.207 F10800.000
G1 F1200
G1 X121.379 Y144.787 E0.09421
G1 X124.233 Y143.921 E0.09350
G1 X127.200 Y143.629 E0.09348
G1 X130.167 Y143.921 E0.09348
G1 X133.021 Y144.787 E0.09350
G1 X135.651 Y146.193 E0.09351
G1 X137.956 Y148.084 E0.09349
G1 X139.847 Y150.389 E0.09349
G1 X141.253 Y153.019 E0.09351
G1 X142.119 Y155.873 E0.09350
G1 X142.411 Y158.840 E0.09348
G1 X142.119 Y161.807 E0.09348
G1 X141.253 Y164.661 E0.09350
G1 X139.847 Y167.291 E0.09351
G1 X137.956 Y169.596 E0.09349
G1 X135.651 Y171.487 E0.09349
G1 X133.021 Y172.893 E0.09351
G1 X130.167 Y173.759 E0.09350
G1 X127.200 Y174.051 E0.09348
G1 X124.233 Y173.759 E0.09348
G1 X121.379 Y172.893 E0.09350
G1 X118.749 Y171.487 E0.09351
G1 X116.444 Y169.596 E0.09348
G1 X114.553 Y167.291 E0.09349
G1 X113.147 Y164.661 E0.09351
G1 X112.281 Y161.807 E0.09350
G1 X111.989 Y158.840 E0.09348
G1 X112.281 Y155.873 E0.09348
G1 X113.147 Y153.019 E0.09350
G1 X114.553 Y150.389 E0.09351
G1 X116.444 Y148.084 E0.09349
G1 X118.685 Y146.245 E0.09088
G1 X118.705 Y145.808 F10800.000
G1 F8640
G1 X121.379 Y144.787 E-0.70741
G1 X121.597 Y144.721 E-0.05259
G1 E-0.04000 F2100.00000
G1 Z0.800 F10800.000
G1 X17.787 Y194.573
G1 Z0.200
G1 E0.80000 F2100.00000
G1 F1200
G1 X17.787 Y15.427 E5.61699
M73 Q0 S235
M73 P0 R220
G1 X232.213 Y15.427 E6.72317
G1 X232.213 Y194.573 E5.61699
G1 X17.847 Y194.573 E6.72129
G1 X17.410 Y194.950 F10800.000
G1 F1200
G1 X17.410 Y15.050 E5.64064
G1 X232.590 Y15.050 E6.74682
G1 X232.590 Y194.950 E5.64064
G1 X17.470 Y194.950 E6.74494
M73 Q0 S234
M73 P1 R219
G1 X17.525 Y194.567 F10800.000
G1 F8640
G1 X17.469 Y191.659 E-0.76000
G1 E-0.04000 F2100.00000
G1 Z0.800 F10800.000
G1 X17.900 Y193.697
G1 Z0.200
G1 E0.80000 F2100.00000
G1 F1200
G1 X18.493 Y194.290 E0.02632
G1 X19.027 Y194.290 E0.01674
G1 X18.070 Y193.333 E0.04246
G1 X18.070 Y192.800 E0.01674
G1 X19.560 Y194.290 E0.06612
G1 X20.094 Y194.290 E0.01674
G1 X18.070 Y192.266 E0.08979
G1 X18.070 Y191.733 E0.01674
G1 X20.627 Y194.290 E0.11346
G1 X21.161 Y194.290 E0.01674
G1 X18.070 Y191.199 E0.13713
G1 X18.070 Y190.666 E0.01674
G1 X21.694 Y194.290 E0.16079
G1 X22.228 Y194.290 E0.01674
G1 X18.070 Y190.132 E0.18446
G1 X18.070 Y189.598 E0.01674
G1 X22.762 Y194.290 E0.20813
G1 X23.295 Y194.290 E0.01674
G1 X18.070 Y189.065 E0.23179
G1 X18.070 Y188.531 E0.01674
G1 X23.829 Y194.290 E0.25546
G1 X24.362 Y194.290 E0.01674
G1 X18.070 Y187.998 E0.27913
G1 X18.070 Y187.464 E0.01674
G1 X24.896 Y194.290 E0.30279
G1 X25.429 Y194.290 E0.01674
G1 X18.070 Y186.931 E0.32646
G1 X18.070 Y186.397 E0.01674
G1 X25.963 Y194.290 E0.35013
G1 X26.496 Y194.290 E0.01674
G1 X18.070 Y185.864 E0.37380
G1 X18.070 Y185.330 E0.01674
G1 X27.030 Y194.290 E0.39746
G1 X27.563 Y194.290 E0.01674
G1 X18.070 Y184.797 E0.42113
G1 X18.070 Y184.263 E0.01674
G1 X28.097 Y194.290 E0.44480
G1 X28.630 Y194.290 E0.01674
G1 X18.070 Y183.730 E0.46846
G1 X18.070 Y183.196 E0.01674
G1 X29.164 Y194.290 E0.49213
G1 X29.697 Y194.290 E0.01674
G1 X18.070 Y182.663 E0.51580
G1 X18.070 Y182.129 E0.01674
G1 X30.231 Y194.290 E0.53947
G1 X30.764 Y194.290 E0.01674
G1 X18.070 Y181.596 E0.56313
G1 X18.070 Y181.062 E0.01674
G1 X31.298 Y194.290 E0.58680
G1 X31.831 Y194.290 E0.01674
G1 X18.070 Y180.529 E0.61047
G1 X18.070 Y179.995 E0.01674
G1 X32.365 Y194.290 E0.63413
G1 X32.898 Y194.290 E0.01674
G1 X18.070 Y179.462 E0.65780
G1 X18.070 Y178.928 E0.01674
G1 X33.432 Y194.290 E0.68147
G1 X33.965 Y194.290 E0.01674
G1 X18.070 Y178.395 E0.70513
G1 X18.070 Y177.861 E0.01674
G1 X34.499 Y194.290 E0.72880
G1 X35.032 Y194.290 E0.01674
G1 X18.070 Y177.328 E0.75247
G1 X18.070 Y176.794 E0.01674
G1 X35.566 Y194.290 E0.77614
G1 X36.099 Y194.290 E0.01674
G1 X18.070 Y176.261 E0.79980
G1 X18.070 Y175.727 E0.01674
G1 X36.633 Y194.290 E0.82347
G1 X37.166 Y194.290 E0.01674
G1 X18.070 Y175.194 E0.84714
G1 X18.070 Y174.660 E0.01674
G1 X37.700 Y194.290 E0.87080
G1 X38.233 Y194.290 E0.01674
G1 X18.070 Y174.127 E0.89447
G1 X18.070 Y173.593 E0.01674
G1 X38.767 Y194.290 E0.91814
G1 X39.300 Y194.290 E0.01674
G1 X18.070 Y173.060 E0.94180
G1 X18.070 Y172.526 E0.01674
G1 X39.834 Y194.290 E0.96547
G1 X40.367 Y194.290 E0.01674
G1 X18.070 Y171.993 E0.98914
G1 X18.070 Y171.459 E0.01674
G1 X40.901 Y194.290 E1.01281
G1 X41.434 Y194.290 E0.01674
G1 X18.070 Y170.926 E1.03647
G1 X18.070 Y170.392 E0.01674
G1 X41.968 Y194.290 E1.06014
G1 X42.501 Y194.290 E0.01674
G1 X18.070 Y169.859 E1.08381
G1 X18.070 Y169.325 E0.01674
G1 X43.035 Y194.290 E1.10747
G1 X43.568 Y194.290 E0.01674
G1 X18.070 Y168.792 E1.13114
G1 X18.070 Y168.258 E0.01674
G1 X44.102 Y194.290 E1.15481
G1 X44.635 Y194.290 E0.01674
G1 X18.070 Y167.725 E1.17847
G1 X18.070 Y167.191 E0.01674
G1 X45.169 Y194.290 E1.20214
G1 X45.702 Y194.290 E0.01674
G1 X18.070 Y166.658 E1.22581
G1 X18.070 Y166.124 E0.01674
G1 X46.236 Y194.290 E1.24948
G1 X46.769 Y194.290 E0.01674
G1 X18.070 Y165.591 E1.27314
G1 X18.070 Y165.057 E0.01674
G1 X47.303 Y194.290 E1.29681
M73 Q1 S233
M73 P1 R218
G1 X47.836 Y194.290 E0.01674
G1 X18.070 Y164.524 E1.32048
G1 X18.070 Y163.990 E0.01674
G1 X48.370 Y194.290 E1.34414
G1 X48.903 Y194.290 E0.01674
G1 X18.070 Y163.457 E1.36781
G1 X18.070 Y162.923 E0.01674
G1 X49.437 Y194.290 E1.39148
G1 X49.970 Y194.290 E0.01674
G1 X18.070 Y162.390 E1.41514
G1 X18.070 Y161.856 E0.01674
G1 X50.504 Y194.290 E1.43881
G1 X51.037 Y194.290 E0.01674
G1 X18.070 Y161.323 E1.46248
G1 X18.070 Y160.789 E0.01674
G1 X51.571 Y194.290 E1.48615
G1 X52.104 Y194.290 E0.01674
G1 X18.070 Y160.256 E1.50981
G1 X18.070 Y159.722 E0.01674
G1 X52.638 Y194.290 E1.53348
G1 X53.171 Y194.290 E0.01674
G1 X18.070 Y159.189 E1.55715
G1 X18.070 Y158.655 E0.01674
G1 X53.705 Y194.290 E1.58081
G1 X54.238 Y194.290 E0.01674
G1 X18.070 Y158.122 E1.60448
G1 X18.070 Y157.588 E0.01674
G1 X54.772 Y194.290 E1.62815
G1 X55.305 Y194.290 E0.01674
G1 X18.070 Y157.055 E1.65181
G1 X18.070 Y156.521 E0.01674
G1 X55.839 Y194.290 E1.67548
G1 X56.372 Y194.290 E0.01674
G1 X18.070 Y155.988 E1.69915
G1 X18.070 Y155.454 E0.01674
G1 X56.906 Y194.290 E1.72282
G1 X57.439 Y194.290 E0.01674
G1 X18.070 Y154.921 E1.74648
G1 X18.070 Y154.387 E0.01674
G1 X57.973 Y194.290 E1.77015
G1 X58.506 Y194.290 E0.01674
G1 X18.070 Y153.854 E1.79382
G1 X18.070 Y153.320 E0.01674
G1 X59.040 Y194.290 E1.81748
G1 X59.573 Y194.290 E0.01674
G1 X18.070 Y152.787 E1.84115
G1 X18.070 Y152.253 E0.01674
G1 X60.107 Y194.290 E1.86482
M73 Q1 S232
M73 P1 R217
G1 X60.640 Y194.290 E0.01674
G1 X18.070 Y151.720 E1.88848
G1 X18.070 Y151.186 E0.01674
G1 X61.174 Y194.290 E1.91215
G1 X61.707 Y194.290 E0.01674
G1 X18.070 Y150.653 E1.93582
G1 X18.070 Y150.119 E0.01674
G1 X62.241 Y194.290 E1.95949
G1 X62.774 Y194.290 E0.01674
G1 X18.070 Y149.586 E1.98315
G1 X18.070 Y149.052 E0.01674
G1 X63.308 Y194.290 E2.00682
G1 X63.841 Y194.290 E0.01674
G1 X18.070 Y148.518 E2.03049
G1 X18.070 Y147.985 E0.01674
G1 X64.375 Y194.290 E2.05415
G1 X64.909 Y194.290 E0.01674
G1 X18.070 Y147.451 E2.07782
G1 X18.070 Y146.918 E0.01674
G1 X65.442 Y194.290 E2.10149
G1 X65.976 Y194.290 E0.01674
G1 X18.070 Y146.384 E2.12515
G1 X18.070 Y145.851 E0.01674
G1 X66.509 Y194.290 E2.14882
G1 X67.043 Y194.290 E0.01674
G1 X18.070 Y145.317 E2.17249
G1 X18.070 Y144.784 E0.01674
G1 X67.576 Y194.290 E2.19616
G1 X68.110 Y194.290 E0.01674
G1 X18.070 Y144.250 E2.21982
G1 X18.070 Y143.717 E0.01674
G1 X68.643 Y194.290 E2.24349
G1 X69.177 Y194.290 E0.01674
G1 X18.070 Y143.183 E2.26716
G1 X18.070 Y142.650 E0.01674
G1 X69.710 Y194.290 E2.29082
M73 Q2 S231
M73 P2 R216
G1 X70.244 Y194.290 E0.01674
G1 X18.070 Y142.116 E2.31449
G1 X18.070 Y141.583 E0.01674
G1 X70.777 Y194.290 E2.33816
G1 X71.311 Y194.290 E0.01674
G1 X18.070 Y141.049 E2.36182
G1 X18.070 Y140.516 E0.01674
G1 X71.844 Y194.290 E2.38549
G1 X72.378 Y194.290 E0.01674
G1 X18.070 Y139.982 E2.40916
G1 X18.070 Y139.449 E0.01674
G1 X72.911 Y194.290 E2.43283
G1 X73.445 Y194.290 E0.01674
G1 X18.070 Y138.915 E2.45649
G1 X18.070 Y138.382 E0.01674
G1 X73.978 Y194.290 E2.48016
G1 X74.512 Y194.290 E0.01674
G1 X18.070 Y137.848 E2.50383
G1 X18.070 Y137.315 E0.01674
G1 X75.045 Y194.290 E2.52749
G1 X75.579 Y194.290 E0.01674
G1 X18.070 Y136.781 E2.55116
G1 X18.070 Y136.248 E0.01674
G1 X76.112 Y194.290 E2.57483
G1 X76.646 Y194.290 E0.01674
G1 X18.070 Y135.714 E2.59849
G1 X18.070 Y135.181 E0.01674
G1 X77.179 Y194.290 E2.62216
G1 X77.713 Y194.290 E0.01674
G1 X18.070 Y134.647 E2.64583
G1 X18.070 Y134.114 E0.01674
G1 X78.246 Y194.290 E2.66950
M73 Q2 S229
M73 P2 R214
G1 X78.780 Y194.290 E0.01674
G1 X18.070 Y133.580 E2.69316
G1 X18.070 Y133.047 E0.01674
G1 X79.313 Y194.290 E2.71683
G1 X79.847 Y194.290 E0.01674
G1 X18.070 Y132.513 E2.74050
G1 X18.070 Y131.980 E0.01674
G1 X80.380 Y194.290 E2.76416
G1 X80.914 Y194.290 E0.01674
G1 X18.070 Y131.446 E2.78783
G1 X18.070 Y130.913 E0.01674
G1 X81.447 Y194.290 E2.81150
G1 X81.981 Y194.290 E0.01674
G1 X18.070 Y130.379 E2.83516
G1 X18.070 Y129.846 E0.01674
G1 X82.514 Y194.290 E2.85883
G1 X83.048 Y194.290 E0.01674
G1 X18.070 Y129.312 E2.88250
G1 X18.070 Y128.779 E0.01674
G1 X83.581 Y194.290 E2.90617
G1 X84.115 Y194.290 E0.01674
G1 X18.070 Y128.245 E2.92983
G1 X18.070 Y127.712 E0.01674
G1 X84.648 Y194.290 E2.95350
G1 X85.182 Y194.290 E0.01674
G1 X18.070 Y127.178 E2.97717
G1 X18.070 Y126.645 E0.01674
G1 X85.715 Y194.290 E3.00083
M73 Q3 S228
M73 P3 R213
G1 X86.249 Y194.290 E0.01674
G1 X18.070 Y126.111 E3.02450
G1 X18.070 Y125.578 E0.01674
G1 X86.782 Y194.290 E3.04817
G1 X87.316 Y194.290 E0.01674
G1 X18.070 Y125.044 E3.07183
G1 X18.070 Y124.511 E0.01674
G1 X87.849 Y194.290 E3.09550
G1 X88.383 Y194.290 E0.01674
G1 X18.070 Y123.977 E3.11917
G1 X18.070 Y123.444 E0.01674
G1 X88.916 Y194.290 E3.14284
G1 X89.450 Y194.290 E0.01674
G1 X18.070 Y122.910 E3.16650
G1 X18.070 Y122.377 E0.01674
G1 X89.983 Y194.290 E3.19017
G1 X90.517 Y194.290 E0.01674
G1 X18.070 Y121.843 E3.21384
G1 X18.070 Y121.310 E0.01674
G1 X91.050 Y194.290 E3.23750
G1 X91.584 Y194.290 E0.01674
G1 X18.070 Y120.776 E3.26117
G1 X18.070 Y120.243 E0.01674
G1 X92.117 Y194.290 E3.28484
M73 Q3 S227
M73 P3 R212
G1 X92.651 Y194.290 E0.01674
G1 X18.070 Y119.709 E3.30850
G1 X18.070 Y119.176 E0.01674
G1 X93.184 Y194.290 E3.33217
G1 X93.718 Y194.290 E0.01674
G1 X18.070 Y118.642 E3.35584
G1 X18.070 Y118.109 E0.01674
G1 X94.251 Y194.290 E3.37951
G1 X94.785 Y194.290 E0.01674
G1 X18.070 Y117.575 E3.40317
G1 X18.070 Y117.042 E0.01674
G1 X95.318 Y194.290 E3.42684
G1 X95.852 Y194.290 E0.01674
G1 X18.070 Y116.508 E3.45051
G1 X18.070 Y115.975 E0.01674
G1 X96.385 Y194.290 E3.47417
G1 X96.919 Y194.290 E0.01674
G1 X18.070 Y115.441 E3.49784
G1 X18.070 Y114.908 E0.01674
G1 X97.452 Y194.290 E3.52151
G1 X97.986 Y194.290 E0.01674
G1 X18.070 Y114.374 E3.54517
M73 Q4 S226
M73 P4 R211
G1 X18.070 Y113.841 E0.01674
G1 X98.519 Y194.290 E3.56884
G1 X99.053 Y194.290 E0.01674
G1 X18.070 Y113.307 E3.59251
G1 X18.070 Y112.774 E0.01674
G1 X99.586 Y194.290 E3.61618
G1 X100.120 Y194.290 E0.01674
G1 X18.070 Y112.240 E3.63984
G1 X18.070 Y111.707 E0.01674
G1 X100.653 Y194.290 E3.66351
G1 X101.187 Y194.290 E0.01674
G1 X18.070 Y111.173 E3.68718
G1 X18.070 Y110.640 E0.01674
G1 X101.720 Y194.290 E3.71084
G1 X102.254 Y194.290 E0.01674
G1 X18.070 Y110.106 E3.73451
G1 X18.070 Y109.573 E0.01674
G1 X102.787 Y194.290 E3.75818
G1 X103.321 Y194.290 E0.01674
G1 X18.070 Y109.039 E3.78184
G1 X18.070 Y108.506 E0.01674
G1 X103.854 Y194.290 E3.80551
M73 Q4 S225
M73 P4 R210
G1 X104.388 Y194.290 E0.01674
G1 X18.070 Y107.972 E3.82918
G1 X18.070 Y107.439 E0.01674
G1 X104.921 Y194.290 E3.85285
G1 X105.455 Y194.290 E0.01674
G1 X18.070 Y106.905 E3.87651
G1 X18.070 Y106.371 E0.01674
G1 X105.989 Y194.290 E3.90018
G1 X106.522 Y194.290 E0.01674
G1 X18.070 Y105.838 E3.92385
G1 X18.070 Y105.304 E0.01674
G1 X107.056 Y194.290 E3.94751
G1 X107.589 Y194.290 E0.01674
G1 X18.070 Y104.771 E3.97118
G1 X18.070 Y104.237 E0.01674
G1 X108.123 Y194.290 E3.99485
G1 X108.656 Y194.290 E0.01674
G1 X18.070 Y103.704 E4.01851
G1 X18.070 Y103.170 E0.01674
G1 X109.190 Y194.290 E4.04218
M73 Q4 S224
M73 P5 R209
G1 X109.723 Y194.290 E0.01674
G1 X18.070 Y102.637 E4.06585
G1 X18.070 Y102.103 E0.01674
G1 X110.257 Y194.290 E4.08952
G1 X110.790 Y194.290 E0.01674
G1 X18.070 Y101.570 E4.11318
G1 X18.070 Y101.036 E0.01674
G1 X111.324 Y194.290 E4.13685
G1 X111.857 Y194.290 E0.01674
G1 X18.070 Y100.503 E4.16052
G1 X18.070 Y99.969 E0.01674
G1 X112.391 Y194.290 E4.18418
G1 X112.924 Y194.290 E0.01674
G1 X18.070 Y99.436 E4.20785
G1 X18.070 Y98.902 E0.01674
G1 X113.458 Y194.290 E4.23152
G1 X113.991 Y194.290 E0.01674
G1 X18.070 Y98.369 E4.25518
M73 Q5 S223
M73 P5 R208
G1 X18.070 Y97.835 E0.01674
G1 X114.525 Y194.290 E4.27885
G1 X115.058 Y194.290 E0.01674
G1 X18.070 Y97.302 E4.30252
G1 X18.070 Y96.768 E0.01674
G1 X115.592 Y194.290 E4.32619
G1 X116.125 Y194.290 E0.01674
